packages/katcn/src/icons/svg/bulb.svg

<svg width="24" height="24" viewBox="0 0 24 24" fill="none" xmlns="http://www.w3.org/2000/svg">
<path d="M19.8503 7.38123C19.339 4.32512 16.7825 1.76194 13.6124 1.17043C11.2604 0.67751 8.80621 1.26901 6.96553 2.74778C5.0226 4.22654 4 6.39539 4 8.66283C4 10.7331 4.81808 12.6062 6.35197 14.085C7.06779 14.775 7.47683 15.5637 7.68135 16.451L7.88587 17.7326C8.19265 19.0142 9.3175 20 10.7491 20H13.2034C14.5327 20 15.7599 19.0142 16.0666 17.7326L16.3734 16.451C16.5779 15.5637 16.987 14.775 17.7028 14.085C19.5435 12.3104 20.3616 9.84583 19.8503 7.38123ZM16.2712 12.7048C15.2486 13.6906 14.635 14.8736 14.3282 16.0566L14.0215 17.3382C14.0215 17.7326 13.6124 18.0283 13.2034 18.0283H10.7491C10.3401 18.0283 10.0333 17.7326 9.93106 17.3382L9.62428 16.0566C9.41976 14.775 8.70395 13.6906 7.68135 12.7048C6.65875 11.6203 6.04519 10.2402 6.04519 8.66283C6.04519 6.9869 6.86327 5.31096 8.19265 4.22654C9.3175 3.43787 10.6469 2.94495 11.9763 2.94495C12.3853 2.94495 12.7943 2.94494 13.2034 3.04353C15.5553 3.53645 17.396 5.40955 17.8051 7.67698C18.2141 9.55008 17.6005 11.4232 16.2712 12.7048Z" fill="black"/>
<path d="M14.8267 21H9.06667C8.42667 21 8 21.4 8 22C8 22.6 8.42667 23 9.06667 23H14.9333C15.5733 23 16 22.6 16 22C16 21.4 15.4667 21 14.8267 21Z" fill="black"/>
</svg>

<svg xmlns="http://www.w3.org/2000/svg" fill="none" viewBox="0 0 24 24"><path fill="#000" d="M19.85 7.381c-.511-3.056-3.068-5.62-6.238-6.21a8.02 8.02 0 0 0-6.646 1.577C5.023 4.227 4 6.395 4 8.663c0 2.07.818 3.943 2.352 5.422a4.63 4.63 0 0 1 1.33 2.366l.204 1.282C8.193 19.014 9.318 20 10.749 20h2.454c1.33 0 2.557-.986 2.864-2.267l.306-1.282a4.63 4.63 0 0 1 1.33-2.366c1.84-1.775 2.659-4.24 2.147-6.704m-3.579 5.324a7.1 7.1 0 0 0-1.943 3.352l-.306 1.281c0 .395-.41.69-.819.69H10.75c-.409 0-.716-.295-.818-.69l-.307-1.281c-.204-1.282-.92-2.366-1.943-3.352C6.66 11.62 6.045 10.24 6.045 8.663c0-1.676.818-3.352 2.148-4.436 1.125-.79 2.454-1.282 3.783-1.282.41 0 .818 0 1.227.099 2.352.492 4.193 2.366 4.602 4.633a5.36 5.36 0 0 1-1.534 5.028M14.827 21h-5.76C8.427 21 8 21.4 8 22s.427 1 1.067 1h5.866c.64 0 1.067-.4 1.067-1s-.533-1-1.173-1"/></svg>
